X: 152
T: Sandy Cameron
T: (The Famous Athlete)
C: J. Scott Skinner
R: strathspey
Z: 2009 John Chambers <jc:trillian.mit.edu>
F: http://www.abdn.ac.uk/scottskinner/display.php?ID=JSS0711 Oct 2009
N: Second of two variants, by J.S.Skinner
P: Var. for Violin
M: C
L: 1/16
K: A
{g}a2 \
| "A"AAA2 cAA2 eAA2 kc3A \
| "Bm"BBB2 dBB2 fBB2 kd3B \
| "A"AAA2 cAA2 eAA2 {g}ka3c \
| "D"ddd2 "E7"(B3e) "A"[c3E3][AE] [A2E2] :|
g2 \
| "A"(3a2g2f2 (3.e2.f2.g2 (3.a2.e2.d2. (3.c2.B2.A2 \
| "G"(3=g2f2e2 (3.d2.e2.f2 (3.g2.d2.c2 (3.B2.A2.=G \
| "A"(3.a2.^g2.f2 (3.e2.f2.g2 (3.a2.e2.d2. (3.c2.B2.A2 \
| "D"ddd2 "E7"(B3e) "A"({cd}[c3E3][AE]) ([A3E3][eE]) |
| "A"(3.a2.g2.f2 (3.e2.f2.g2 (3.a2.e2.d2. (3.c2.B2.A2 \
| "G"(3.=g2.f2.e2 (3.d2.e2.f2 (3.g2.d2.c2 (3.B2.A2.=G \
"1st time"\
||[" " "A"cBA2 "Bm"dcB2 "A/C#"edc2 "A"a3c \
| "D"ddd2 "E7"(B3e) "A"{cd}[c3E3][AE] [A2E2] "d.C."y|]
"last time"\
||[" " "A"cBA2 "Bm"dcB2 "A/C#"(3e2d2c2 "D"(3a2g2f2 \
| "E7"(3e2d2c2 (3d2c2B2 "A"[c3E3][AE] [A2E2] |]\
y8 y8 y8 y8 y8 y8 y8 y8 y8 y8 y8 y8

%%sep 1 1 500

